X:513
T:The Mulberry Garden
T:The Maid in the Mill
%%subtitlefont Times-Roman 18
C:Playford 1670
S:Colin Hume's website,  colinhume.com  - chords can also be printed below the stave.
Q:3/8=120
M:6/8
L:1/8
K:Dm
P:A
A | "Dm"d2e "F"fcA | "Gm"GAF "C"c2A | "Dm"d2e fd2 | "A7"a3- a2A |\
"Bb"d2e "F"fcA | "Gm"GAF "C"c2A | "Bb"d2e fd2 | "F"a3- a2a ||
P:B
| "Gm"bag "Am"a2e | "Dm"fd2 "Gm"g2a | "Am"efg "Dm"fed | "A7"^c3- c2B |\
"Dm"A2G "Gm"F2E | "Dm"Dd2 ^c2d | "Gm"eAf "A7"e2d | "Dm"d3- d2 |]

